X:1
T:Title
%%score { 1 | 2 }
L:1/8
Q:1/4=100
M:4/4
K:C
V:1 treble nm="Grand Piano"
V:2 bass 
V:1
 A3- A/A/ _B2 A2 | G2 [^Gd]2 [Ac]4 | [EG]3- [EG]/[FA]/ [G_B]2 [EG]2 | [Gc]2 [G_B]2 A4 | %4
w: F.~L.~Armstrong * * * *||||
 A3- A/A/ _B2 A2 | G2 [^Gd]2 [Ac]4 | [Gc]2 [Gc]2 [Gd]2 [Ge]2 | [Ge]3 [Fd] [Ec]4 | %8
w: ||||
 [E_B]3- [EB]/[EA]/ [EG]2 [Ec]2 | [FA]2 [^Gd]2 [Ac]4 | [DF]3- [DF]/[D_B]/ [FA]2 F2 | %11
w: |||
 F2 E2 [A,CF]4 |] %12
w: |
V:2
 [F,CF]3- [F,CF]/[F,CF]/ [F,DF]2 [F,CF]2 | [F,_B,F]2 [F,=B,]2 [F,C]4 | %2
 [C,C]3- [C,C]/[C,C]/ [C,C]2 [C,C]2 | [E,C]2 [E,C]2 [F,CF]4 | %4
 [F,CF]3- [F,CF]/[F,CF]/ [F,DF]2 [F,CF]2 | [F,_B,F]2 [F,=B,]2 [F,C]4 | %6
 [E,C]2 [E,C]2 [D,B,]2 [C,C]2 | [G,C]3 [G,B,] [C,C]4 | [C,C]3- [C,C]/[C,C]/ [C,C]2 [C,C]2 | %9
 [F,C]2 [F,B,]2 [F,C]4 | [D,_B,]3- [D,B,]/[_B,,F,]/ [C,A,]2 [C,A,C]2 | %11
 [C,^G,B,]2 [C,=G,_B,]2 [F,,F,]4 |] %12

